app/client/src/assets/icons/blueprintjs/16px/new-drawing.svg

<?xml version="1.0" encoding="UTF-8"?>
<svg viewBox="0 0 16 16" version="1.1" xmlns="http://www.w3.org/2000/svg" xmlns:xlink="http://www.w3.org/1999/xlink">
    <title>New drawing</title>
    <g stroke="none" stroke-width="1" fill="none" fill-rule="evenodd">
        <g fill="#000000" fill-rule="nonzero">
            <path d="M14.9,11 C15.5,11 15.9,11.5 15.9,12 C15.9,12.2571429 15.8265306,12.4408163 15.6795918,12.6139942 L15.6,12.7 L12.6,15.7 C12.4,15.9 12.2,16 11.9,16 C11.4,16 10.9,15.6 10.9,15 C10.9,14.7428571 10.9734694,14.5591837 11.1204082,14.3860058 L11.2,14.3 L14.2,11.3 C14.4,11.1 14.6,11 14.9,11 Z M1.3,0.1 L8.03373102,2.54950859 C8.01151726,2.69647891 8,2.8469163 8,3 C8,4.3517187 8.89797425,5.49711023 10.1288741,5.87112593 C10.5028898,7.10202575 11.6482813,8 13,8 C13.180854,8 13.3580145,7.98392513 13.5301281,7.95312875 L13.9,9.8 L13.9,10 C13.9,10.2571429 13.8265306,10.4408163 13.6795918,10.6139942 L13.6,10.7 L10.6,13.7 C10.4285714,13.8714286 10.2571429,13.9693878 10.0227405,13.9938776 L9.9,14 L9.7,14 L4.7,13 L4.60027435,12.9893004 C4.36886145,12.9403292 4.15089163,12.7300412 4.04046639,12.4995885 L4,12.4 L4.61852778e-14,1.4 L0.3,1.1 L6.1,6.9 C6,7.1 5.9,7.3 5.9,7.5 C5.9,8.3 6.5,9 7.4,9 C8.3,9 8.9,8.3 8.9,7.5 C8.9,6.7 8.2,6 7.4,6 C7.24,6 7.08,6.064 6.92,6.1408 L6.8,6.2 L1,0.4 L1.3,0.1 Z M13,1.77635684e-14 C13.55,1.77635684e-14 14,0.45 14,1 L14,1 L14,2 L15,2 C15.55,2 16,2.45 16,3 C16,3.55 15.55,4 15,4 L15,4 L14,4 L14,5 C14,5.50299745 13.6236268,5.92235641 13.1385982,5.99035903 L13.1385982,5.99035903 L13.1263991,5.99199224 C13.0849814,5.99727579 13.0427934,6 13,6 L13.097,5.994 L13.0699288,5.99756245 C13.0575371,5.99842896 13.0450851,5.99906708 13.0325769,5.99947258 L13,6 C12.45,6 12,5.55 12,5 L12,5 L12,4 L11,4 C10.9181548,4 10.838524,3.99003508 10.7622609,3.97125858 C10.7566931,3.96989139 10.7505829,3.96832853 10.7444951,3.9667093 C10.7128455,3.95827464 10.6822547,3.94848729 10.652331,3.9373021 C10.6377138,3.93184087 10.6231195,3.92598764 10.6086971,3.91980414 C10.5909055,3.91217639 10.5733649,3.90404084 10.5561043,3.89542025 C10.5350542,3.88490135 10.5146075,3.87377137 10.4946018,3.86196522 C10.482001,3.85453672 10.4691999,3.84659569 10.4565932,3.83837855 C10.4390122,3.82691017 10.4221008,3.81512148 10.4055774,3.80283667 C10.3909006,3.7919318 10.3762929,3.78043857 10.362018,3.76855732 C10.3514713,3.75977399 10.3413238,3.75097506 10.3313567,3.74197949 C10.3120634,3.72457964 10.2931886,3.70617268 10.2750563,3.68705546 C10.26656,3.67809084 10.2584867,3.66926475 10.2505708,3.66029685 C10.2364729,3.64432822 10.2228157,3.62783452 10.2096876,3.61091246 C10.196572,3.59400551 10.1840011,3.57669533 10.1719822,3.55898399 C10.162753,3.54537975 10.1539187,3.53165262 10.1454159,3.51770386 C10.133448,3.49808145 10.1220218,3.4777997 10.1112981,3.45710172 C10.1056639,3.44622778 10.1002092,3.43520873 10.0949542,3.42407886 C10.0851759,3.40336761 10.0760973,3.38229418 10.0677389,3.36086794 C10.060588,3.34254275 10.0539327,3.32386272 10.0478287,3.30494106 C10.0451082,3.29649892 10.0425873,3.28831446 10.0401699,3.28008684 C10.0142434,3.19253586 10,3.09785053 10,3 C10,2.45 10.45,2 11,2 L11,2 L12,2 L12,1 C12,0.45 12.45,1.77635684e-14 13,1.77635684e-14 Z"></path>
        </g>
    </g>
</svg>

<svg xmlns="http://www.w3.org/2000/svg" viewBox="0 0 16 16"><path fill-rule="nonzero" d="M14.9 11c.6 0 1 .5 1 1 0 .257-.073.44-.22.614l-.08.086-3 3c-.2.2-.4.3-.7.3-.5 0-1-.4-1-1 0-.257.073-.44.22-.614l.08-.086 3-3c.2-.2.4-.3.7-.3ZM1.3.1l6.734 2.45a3.005 3.005 0 0 0 2.095 3.322 3.005 3.005 0 0 0 3.401 2.081L13.9 9.8v.2c0 .257-.073.44-.22.614l-.08.086-3 3c-.171.171-.343.27-.577.294L9.9 14h-.2l-5-1-.1-.01c-.231-.05-.45-.26-.56-.49L4 12.4l-4-11 .3-.3 5.8 5.8c-.1.2-.2.4-.2.6 0 .8.6 1.5 1.5 1.5s1.5-.7 1.5-1.5S8.2 6 7.4 6c-.16 0-.32.064-.48.14l-.12.06L1 .4l.3-.3ZM13 0c.55 0 1 .45 1 1v1h1c.55 0 1 .45 1 1s-.45 1-1 1h-1v1c0 .503-.376.922-.861.99l-.013.002A.999.999 0 0 1 13 6l.097-.006-.027.004a1 1 0 0 1-.037.001L13 6c-.55 0-1-.45-1-1V4h-1a.993.993 0 0 1-.855-.482A1 1 0 0 1 10 3c0-.55.45-1 1-1h1V1c0-.55.45-1 1-1Z"/></svg>
